X:1
T:My Eyes Adored You
T:My eyes adored you
T:Bob Crewe, Kenny Nolan
C:Bob Crewe, Kenny Nolan
Z:All Rights Reserved
L:1/8
M:4/4
K:F
V:1 treble 
%%MIDI program 4
V:1
 z2 AA- A3 A |:"Gm" AG G6 |"Gm7" z4 z2 GA |"Gm/C" BABA B2 AG |"Gm7/C" G2 AA A3- A |"F" G F2 F- F4 | %6
w: My eyes * a|dored * you|though I|nev- er laid a hand on *|you My eyes * a-|dored * you *|
w: ||||||
"F" z4 z2 FG | A^GAG AGAG | A^GAG A B2 A |"Gm" G2 G6 |"Gm7" z4 z2 AG |"Gm/C" G2 z2 z2 AB- | %12
w: like a|mil- lion miles a- way from me you|could- nt see how I a- dored|* you|so *|close so close|
w: ||||||
"Gm7/C" B c3 A2 GF | G2"Bb""F/A" F6 |"Bb/C" z8 |"F" CCCF- F2 A2 |"Am" c4 z2 AB | %17
w: * and yet so *|far *||Car- ried your books * from|school play- in|
w: |||Head- ed for cit * y|lights climbed the|
"Gm" cBcB"F7" cBAF- |"Bb" F6 z B- |"Gm7" B A2 F F D3 | B A2 F- F2 z2 |"Eb" B A2 G F2- FG | %22
w: make be- lieve you're mar- ried to me|* you|* were fifth * grade|i was sixth *|when we came * to be|
w: lad- der up to for- tune and fame|* I|* worked my fin- gers|to the bone *|made my- self * a name|
"C7" G4 z4 |"Dm" DD F2 F2 A2 |"Am" c4 z2 Ac |"Cm7" dfdc-"F7" cA G2 |"Bb" F4 z2 DF | %27
w: |walk- in home ev- ry|day o- ver|Bon- ni- cut bridge * * and|bay till we|
w: |fun- ny I seemed to|find that no|mat- ter how the * years un-|wind still I|
"Gm7" B A2 F- F3 F | B A2 F- F2 z F |"Eb" BA G2 G F2 G- |"C7" G8 |"^N.C." z2 A2 A3 A :| z2 c6 | %33
w: grew in- to * the|me and you * who|went our * sep- arate ways||my eyes a-|my|
w: re- mi- nice * bout|the girl I miss,and the|love I * left be- hind||||
 B6 BA ||"Gm" z2 AA- A2 AA- |"Gm7" A2 dd d c2 c- | c B2 B- B B3 | z2"Gm/C" dd- d c2 c | %38
w: eyes * a-||* all my life I will|* re- mem * ber|how warm * and ten|
w: |My eyes * a dored-|* you * * * *|* * * though I~never|laid a hand on you|
"Gm7/C" B A2 A AG F2 |"Fmaj7" G A2 A- A4 | B A2 B B c2 d |"F" c c2 B B2 A2 |"F" A4 z4 | %43
w: * der we * were *|way back then *|whoa * * * * ba|* by * * *||
w: * my eyes * a dored|* you * *|* * * like a *|million miles a- way from,me|you,couldnt,see,how,I|
"Gm" z2 dc d c2 c- |"Gm7" c B2 B- B2 z2 | z2 dd- dccc- |"Gm7/C" cBBB- BA G2 |"Bb" G2 A2"F/A" A4- | %48
w: Oh the feel- ing sad|* re- grets *|I know * I wont ev|* er for- get * you my|child- hood friends|
w: adored you * * *|* * so close|* * * * so close|* and yet * * * so|far * *|
"Gm7/C" A2 AA- A2 AA |:"Gm" A2 G6 |"Gm7" z4 z2 GA |"Gm/C" BABA B A2 G | G2 AA A2 AG | %53
w: * my eyes * a- dored|* you|though I|nev- er laid a hand on you|* my eyes * a- dored|
w: |||||
"Fmaj7" G2 F2 z4 | z4 z2 FG |"F" A^GAG AGAG | A^GA=G A2 BA |"Gm7" G G6 z | z4 z2 AG | G2 z2 z2 Ac | %60
w: * you|like a|mil- lion miles a- way from me you|could- nt see how I a- dored|* you|so close,|* so close|
w: |||||||
"Gm7/C" c2 a2"^N.C." g2 f2 |"Bb" f4"F/A" f4 |"Gm7/C" z2"^N.C." AA A2"^Repeat and fade" AA :| %63
w: * and yet so|far *|My eyes * a- dored-|
w: |||

